X: 298
T: St. Patrick's Day
B: O'Neill's 298
N: "Lively"
N: "Collected by J.O'Neill"
Z: 1997 by John Chambers <jc@trillian.mit.edu>
N: The second part is 14 bars (6+8).
M: 6/8
L: 1/8
K:G
D \
| GAG GBd | gfe dBG | AGA BGD | EFE E2D \
| GAG GBd | gfe dBG |
| AGA BGD | E2F G2 :| B | def gag | fed edB \
| def gag | fed e2B | def gag | fed gfe |
| dBG GBd | gfe dBG | AGA BGD | EFE E2D \
| GAG GBd | gfe dBG | AGA BGD | E2F G2 ||


